X:732
T: Second of August
Z: Piano Box Version by Martin Fleischmann
H: Created 2015-05-04 /  Last Modified 2015-05-17
M: 6/8
L: 1/8
R: Reel
K:Edor
A,|:B,DE GE A  | AGE EE A,  | B,DE GE A  | AGA B2B, |
B,DE GE A  | AGB ABd  | -dBA BGA   |1  AGE EE B,  :|2  AGE EE d  :|
|:dBA (3Bcd B |  dBd eee | dBA BdB |  AGE EEd |
dBA (3Bcd B |  dBd eee | dBA BdB |1  AGE EEd :|2 ABd Bde | 
|: ged ege | aaa bbb  | abg age  | ged Bde  |
ged ege | a2a bbb  |1 d'ba gba | ged Bde :|2  d'ba b2^a |age edB :| 
|:A2A ABG | ABd e2e | ABG ABG | AGE EEG |
ABG AAA | ABd eee |  dBA BAG |1AGE EEG:|2 AGE E3 |

